clients/portal/components/icon/svgs/restore.svg

<svg xmlns="http://www.w3.org/2000/svg" height="24" viewBox="0 0 24 24" width="24"><path d="M0 0h24v24H0V0z" fill="currentColor"/><path d="M13 3c-4.97 0-9 4.03-9 9H1l4 3.99L9 12H6c0-3.87 3.13-7 7-7s7 3.13 7 7-3.13 7-7 7c-1.93 0-3.68-.79-4.94-2.06l-1.42 1.42C8.27 19.99 10.51 21 13 21c4.97 0 9-4.03 9-9s-4.03-9-9-9zm-1 5v5l4.25 2.52.77-1.28-3.52-2.09V8z"/></svg>

<svg width="24" height="24" viewBox="0 0 24 24" fill="none" xmlns="http://www.w3.org/2000/svg">
<path d="M13 3C8.03 3 4 7.03 4 12H1L4.89 15.89L4.96 16.03L9 12H6C6 8.13 9.13 5 13 5C16.87 5 20 8.13 20 12C20 15.87 16.87 19 13 19C11.07 19 9.32 18.21 8.06 16.94L6.64 18.36C8.27 19.99 10.51 21 13 21C17.97 21 22 16.97 22 12C22 7.03 17.97 3 13 3ZM12 8V13L16.28 15.54L17 14.33L13.5 12.25V8H12Z" fill="#475569"/>
</svg>
